X:21
T:Cskos Post
C:Necke
N:
L:1/8
Q:1/4=240
M:2/4
K:C
z4 | zb e'/4e'3/8e'3/8e'/4e'3/8e'3/8 | e'c' e'/4e'3/8e'3/8e'/4e'3/8e'3/8 | e'e ^gb | 
e'2 e7/4e/4 | a2 AB | c2 e2 | f2 a2 | e/4e3/8e3/8e/4e3/8e3/8 e/4e3/8e3/8e/4e3/4 | 
d/4d3/8d3/8d/4d3/8d3/8 f2 | c/4c3/8c3/8c/4c3/8c3/8 e2 | B/4B3/8B3/8B/4B3/8B3/8 e2 | 
cB A/4A3/8Az/8e/4 | a2 AB | c2 e2 | f2 a2 | e/4e3/8e3/8e/4e3/8e3/8 e/4e3/8e3/8e/4e3/8e3/8 | 
e^d e^f | g^f ga | b2 ^fb | e2 [e7/4E7/4]e/4 | a2 AB | c2 e2 | f2 a2 | e/4e3/8e3/8e/4e3/8e3/8 e/4e3/8e3/8e/4e3/4 | 
d/4d3/8d3/8d/4d3/8d3/8 f2 | c/4c3/8c3/8c/4c3/8c3/8 e2 | B/4B3/8B3/8B/4B3/8B3/8 e2 | 
cB A/4A3/8Az/8e/4 | a2 AB | c2 e2 | f2 a2 | e/4e3/8e3/8e/4e3/8e3/8 e/4e3/8e3/8e/4e3/4 | 
e^d e^f | g^f ga | b2 ^fb | e2 [e2E2] | aa aa | aa aa | aa aa | aa aa3/4F/4 | 
E2 E^F | ^GE B/4B3/8B3/8B/4B3/4 | A2 AB | cA e/4e3/8e3/8e/4e3/4 | aa aa | aa aa | 
aa aa | aa aa | ea e/4e3/8e3/8e/4e3/4 | ce Ac | Be ^GB | A2 [a2c2] | aa aa | aa aa | 
aa aa | aa aa3/4F/4 | E2 E^F | ^GE B/4B3/8B3/8B/4B3/4 | A2 AB | cA e/4e3/8e3/8e/4e3/4 | 
aa aa | aa aa | aa aa | aa aa | ea e/4e3/8e3/8e/4e3/4 | ce Ac | Be ^GB | A2 [a2c2] | 
c/4c3/8c3/8c/4c3/4 B/4B3/8B3/8B/4B3/4 | _B/4B3/8B3/8B/4B3/4 A/4A3/8A3/8A/4A3/4 | 
G/4G3/8G3/8G/4G3/4 F/4F3/8F3/8F/4F3/4 | E/4E3/8E3/8E/4E3/4 D/4D3/8D3/8D/4D3/4 | 
CD EF | G^F GE | FG A_B | cB cA | _b/4b3/8b3/8d' g/4g3/8g3/8b | e/4e3/8e3/8g c/4c3/8c3/8e | 
f/4f3/8f3/8a c/4c3/8c3/8f | A/4A3/8A3/8c F/4F3/8F3/8A | CD EF | G^F GE | FG A_B | 
cB cA | c'/4c'3/8c'3/8e' a/4a3/8a3/8c' | e/4e3/8e3/8a c/4c3/8c3/8e | B/4B3/8B3/8e ^G/4G3/8G3/8B | 
A2 [a2c2] | CD EF | G^F GE | FG A_B | cB cA | _b/4b3/8b3/8d' g/4g3/8g3/8b | e/4e3/8e3/8g c/4c3/8c3/8e | 
f/4f3/8f3/8a c/4c3/8c3/8f | A/4A3/8A3/8c F/4F3/8F3/8A | CD EF | G^F GE | FG A_B | 
cB cA | c'/4c'3/8c'3/8e' a/4a3/8a3/8c' | e/4e3/8e3/8a c/4c3/8c3/8e | B/4B3/8B3/8e ^G/4G3/8G3/8B | 
A2 [a2c2] | f/e/A/c/ f/e/A/c/ | f/e/A/c/ f2 | g/d/_B/d/ g/d/B/d/ | g/d/_B/d/ g7/4B/4 | 
d2 GA | _B2 d7/4A/4 | c2 FG | A2 c2 | f/e/A/c/ f/e/A/c/ | f/e/A/c/ f2 | g/d/_B/d/ g/d/B/d/ | 
g/d/_B/d/ g2 | FE FD | CF Ac | d2 e/4f/4e/4f/4e/4f/4d/4e/4 | f2 [f2A2] | f/e/A/c/ f/e/A/c/ | 
f/e/A/c/ f2 | g/d/_B/d/ g/d/B/d/ | g/d/_B/d/ g7/4B/4 | d2 GA | _B2 d7/4A/4 | c2 FG | 
A2 c2 | f/e/A/c/ f/e/A/c/ | f/e/A/c/ f2 | g/d/_B/d/ g/d/B/d/ | g/d/_B/d/ g2 | 
FE FD | CF Ac | d2 e/4f/4e/4f/4e/4f/4d/4e/4 | f2 [f2A2] | e'b e'/4e'3/8e'3/8e'/4e'3/8e'3/8 | 
e'c' e'/4e'3/8e'3/8e'/4e'3/8e'3/8 | e'e ^gb | e'2 e7/4e/4 | a2 AB | c2 e2 | f2 a2 | 
e/4e3/8e3/8e/4e3/8e3/8 e/4e3/8e3/8e/4e3/4 | d/4d3/8d3/8d/4d3/8d3/8 f2 | c/4c3/8c3/8c/4c3/8c3/8 e2 | 
B/4B3/8B3/8B/4B3/8B3/8 e2 | cB A/4A3/8Az/8e/4 | a2 AB | c2 e2 | f2 a2 | e/4e3/8e3/8e/4e3/8e3/8 e/4e3/8e3/8e/4e3/8e3/8 | 
e^d e^f | g^f ga | b2 ^fb | e2 [e2E2] | aa aa | aa aa | aa aa | aa aa3/4F/4 | 
E2 E^F | ^GE B/4B3/8B3/8B/4B3/4 | A2 AB | cA e/4e3/8e3/8e/4e3/4 | aa aa | aa aa | 
aa aa | aa aa | ea e/4e3/8e3/8e/4e3/4 | ce Ac | Be ^GB | A2 [a2c2] | [a2c2] [e2d2] | 
[a4c4] | z4 | 
 

